packages/core/assets/Icons/external_link.svg

<svg viewBox="0 0 20 20" fill="none" xmlns="http://www.w3.org/2000/svg">
<path d="M4.16667 17.5C3.70833 17.5 3.31597 17.3368 2.98958 17.0104C2.66319 16.684 2.5 16.2917 2.5 15.8333V4.16667C2.5 3.70833 2.66319 3.31597 2.98958 2.98958C3.31597 2.66319 3.70833 2.5 4.16667 2.5H9.16667C9.40278 2.5 9.60069 2.57986 9.76042 2.73958C9.92014 2.89931 10 3.09722 10 3.33333C10 3.56944 9.92014 3.76736 9.76042 3.92708C9.60069 4.08681 9.40278 4.16667 9.16667 4.16667H4.16667V15.8333H15.8333V10.8333C15.8333 10.5972 15.9132 10.3993 16.0729 10.2396C16.2326 10.0799 16.4306 10 16.6667 10C16.9028 10 17.1007 10.0799 17.2604 10.2396C17.4201 10.3993 17.5 10.5972 17.5 10.8333V15.8333C17.5 16.2917 17.3368 16.684 17.0104 17.0104C16.684 17.3368 16.2917 17.5 15.8333 17.5H4.16667ZM15.8333 5.33333L8.66667 12.5C8.51389 12.6528 8.31944 12.7292 8.08333 12.7292C7.84722 12.7292 7.65278 12.6528 7.5 12.5C7.34722 12.3472 7.27083 12.1528 7.27083 11.9167C7.27083 11.6806 7.34722 11.4861 7.5 11.3333L14.6667 4.16667H12.5C12.2639 4.16667 12.066 4.08681 11.9062 3.92708C11.7465 3.76736 11.6667 3.56944 11.6667 3.33333C11.6667 3.09722 11.7465 2.89931 11.9062 2.73958C12.066 2.57986 12.2639 2.5 12.5 2.5H16.6667C16.9028 2.5 17.1007 2.57986 17.2604 2.73958C17.4201 2.89931 17.5 3.09722 17.5 3.33333V7.5C17.5 7.73611 17.4201 7.93403 17.2604 8.09375C17.1007 8.25347 16.9028 8.33333 16.6667 8.33333C16.4306 8.33333 16.2326 8.25347 16.0729 8.09375C15.9132 7.93403 15.8333 7.73611 15.8333 7.5V5.33333Z" fill="currentColor"/>
</svg>

<svg xmlns="http://www.w3.org/2000/svg" width="20" height="20" fill="none" viewBox="0 0 20 20">
  <path fill="#201F1F" d="M4.167 17.5c-.459 0-.851-.163-1.177-.49a1.605 1.605 0 0 1-.49-1.177V4.167c0-.459.163-.851.49-1.177.326-.327.718-.49 1.177-.49h5c.236 0 .434.08.593.24.16.16.24.357.24.593s-.08.434-.24.594a.806.806 0 0 1-.593.24h-5v11.666h11.666v-5c0-.236.08-.434.24-.593.16-.16.358-.24.594-.24s.434.08.593.24c.16.16.24.357.24.593v5c0 .459-.163.851-.49 1.177-.326.327-.718.49-1.177.49H4.167ZM15.833 5.333 8.667 12.5a.79.79 0 0 1-.584.23.79.79 0 0 1-.583-.23.79.79 0 0 1-.23-.583.79.79 0 0 1 .23-.584l7.167-7.166H12.5a.807.807 0 0 1-.594-.24.806.806 0 0 1-.24-.594c0-.236.08-.434.24-.593.16-.16.358-.24.594-.24h4.167c.236 0 .434.08.593.24.16.16.24.357.24.593V7.5c0 .236-.08.434-.24.594a.806.806 0 0 1-.593.24.806.806 0 0 1-.594-.24.806.806 0 0 1-.24-.594V5.333Z"/>
</svg>
